assets/home/font.svg

<svg xmlns="http://www.w3.org/2000/svg" xmlns:xlink="http://www.w3.org/1999/xlink" width="500" zoomAndPan="magnify" viewBox="0 0 375 116.249996" height="155" preserveAspectRatio="xMidYMid meet" version="1.0"><defs><clipPath id="1ae757f6f0"><path d="M 154.742188 5.53125 L 282.914062 5.53125 L 282.914062 115.074219 L 154.742188 115.074219 Z M 154.742188 5.53125 " clip-rule="nonzero"/></clipPath><clipPath id="95d4d06dd9"><path d="M 80.886719 0 L 191 0 L 191 115.503906 L 80.886719 115.503906 Z M 80.886719 0 " clip-rule="nonzero"/></clipPath><clipPath id="df9fa9aca1"><path d="M 1.203125 5.433594 L 85 5.433594 L 85 27 L 1.203125 27 Z M 1.203125 5.433594 " clip-rule="nonzero"/></clipPath><clipPath id="27eb569d58"><path d="M 1.203125 49 L 85.410156 49 L 85.410156 115.503906 L 1.203125 115.503906 Z M 1.203125 49 " clip-rule="nonzero"/></clipPath><clipPath id="18754af1a4"><path d="M 281.289062 5.53125 L 373.695312 5.53125 L 373.695312 115.503906 L 281.289062 115.503906 Z M 281.289062 5.53125 " clip-rule="nonzero"/></clipPath></defs><g clip-path="url(#1ae757f6f0)"><path fill="#012b52" d="M 218.3125 5.53125 L 154.867188 115.425781 L 216.316406 115.425781 L 232.996094 86.535156 L 223.617188 72.332031 L 219.8125 78.925781 L 207.527344 100.203125 L 181.230469 100.203125 L 218.421875 35.785156 L 256.113281 99.992188 L 238.007812 99.992188 L 230.398438 115.210938 L 282.703125 115.210938 Z M 218.3125 5.53125 " fill-opacity="1" fill-rule="nonzero"/></g><g clip-path="url(#95d4d06dd9)"><path fill="#012b52" d="M 150.734375 78.816406 C 150.464844 76.691406 152.257812 74.898438 154.378906 75.171875 C 155.824219 75.355469 156.992188 76.519531 157.175781 77.96875 C 157.445312 80.089844 155.652344 81.882812 153.53125 81.613281 C 152.085938 81.425781 150.917969 80.261719 150.734375 78.816406 Z M 116.683594 4.167969 C 118.804688 3.898438 120.597656 5.691406 120.328125 7.8125 C 120.144531 9.257812 118.976562 10.425781 117.53125 10.609375 C 115.410156 10.878906 113.617188 9.085938 113.886719 6.964844 C 114.070312 5.519531 115.238281 4.351562 116.683594 4.167969 Z M 189.90625 5.324219 L 154.746094 5.324219 C 154.226562 5.324219 153.726562 5.523438 153.34375 5.875 L 115.316406 41.132812 C 115.125 41.308594 114.875 41.40625 114.613281 41.40625 L 86.046875 41.40625 C 85.480469 41.40625 85.015625 40.945312 85.015625 40.375 L 85.015625 10.484375 C 85.015625 9.914062 85.480469 9.453125 86.046875 9.453125 L 109.292969 9.453125 C 109.714844 9.453125 110.09375 9.707031 110.25 10.09375 C 111.378906 12.949219 114.242188 14.9375 117.535156 14.75 C 121.207031 14.542969 124.207031 11.585938 124.464844 7.917969 C 124.765625 3.613281 121.347656 0.0117188 117.109375 0.0117188 C 113.996094 0.0117188 111.332031 1.949219 110.25 4.679688 C 110.09375 5.070312 109.714844 5.324219 109.292969 5.324219 L 81.921875 5.324219 C 81.351562 5.324219 80.890625 5.785156 80.890625 6.355469 L 80.890625 44.503906 C 80.890625 45.074219 81.351562 45.535156 81.921875 45.535156 L 115.828125 45.535156 C 116.347656 45.535156 116.847656 45.335938 117.230469 44.984375 L 155.261719 9.726562 C 155.449219 9.550781 155.699219 9.453125 155.960938 9.453125 L 185.78125 9.453125 C 186.347656 9.453125 186.8125 9.914062 186.8125 10.484375 L 186.8125 40.375 C 186.8125 40.945312 186.347656 41.40625 185.78125 41.40625 L 153.539062 41.40625 C 153.269531 41.40625 153.011719 41.511719 152.820312 41.699219 L 116.4375 76.90625 C 116.035156 77.296875 115.808594 77.832031 115.808594 78.390625 L 115.808594 114.34375 C 115.808594 114.914062 116.269531 115.375 116.839844 115.375 L 154.988281 115.375 C 155.558594 115.375 156.019531 114.914062 156.019531 114.34375 L 156.019531 86.203125 C 156.019531 85.785156 156.273438 85.402344 156.664062 85.25 C 159.515625 84.117188 161.503906 81.257812 161.320312 77.964844 C 161.113281 74.292969 158.152344 71.292969 154.484375 71.035156 C 150.179688 70.730469 146.578125 74.148438 146.578125 78.390625 C 146.578125 81.503906 148.515625 84.167969 151.246094 85.25 C 151.636719 85.402344 151.890625 85.785156 151.890625 86.203125 L 151.890625 110.214844 C 151.890625 110.785156 151.429688 111.246094 150.859375 111.246094 L 120.96875 111.246094 C 120.398438 111.246094 119.9375 110.785156 119.9375 110.214844 L 119.9375 79.703125 C 119.9375 79.421875 120.050781 79.15625 120.25 78.960938 L 154.492188 45.824219 C 154.683594 45.640625 154.941406 45.535156 155.207031 45.535156 L 189.90625 45.535156 C 190.476562 45.535156 190.941406 45.074219 190.941406 44.503906 L 190.941406 6.355469 C 190.941406 5.785156 190.476562 5.324219 189.90625 5.324219 " fill-opacity="1" fill-rule="nonzero"/></g><g clip-path="url(#df9fa9aca1)"><path fill="#012b52" d="M 54.304688 26.871094 L 84.269531 26.871094 L 84.269531 5.433594 L 1.21875 5.433594 L 1.21875 26.871094 Z M 54.304688 26.871094 " fill-opacity="1" fill-rule="nonzero"/></g><g clip-path="url(#27eb569d58)"><path fill="#012b52" d="M 25.253906 93.804688 L 25.253906 70.683594 L 77.125 70.683594 L 77.125 49.234375 L 1.21875 49.234375 L 1.21875 115.394531 L 85.03125 115.394531 L 85.03125 93.804688 Z M 25.253906 93.804688 " fill-opacity="1" fill-rule="nonzero"/></g><g clip-path="url(#18754af1a4)"><path fill="#012b52" d="M 345.582031 5.570312 L 345.582031 56.53125 L 314.9375 5.542969 L 281.292969 5.542969 L 347.257812 115.503906 L 373.785156 115.503906 L 373.785156 5.570312 Z M 281.292969 115.503906 L 309.496094 115.503906 L 309.496094 65.703125 L 281.292969 65.714844 Z M 281.292969 115.503906 " fill-opacity="1" fill-rule="nonzero"/></g></svg>

<svg xmlns="http://www.w3.org/2000/svg" width="500" zoomAndPan="magnify" viewBox="0 0 375 116.25" height="155" preserveAspectRatio="xMidYMid meet" xmlns:v="https://vecta.io/nano"><style><![CDATA[.B{clip-rule:nonzero}.C{fill:#012b52}]]></style><defs><clipPath id="A"><path d="M154.742 5.531h128.172v109.543H154.742zm0 0" class="B"/></clipPath><clipPath id="B"><path d="M80.887 0H191v115.504H80.887zm0 0" class="B"/></clipPath><clipPath id="C"><path d="M1.203 5.434H85V27H1.203zm0 0" class="B"/></clipPath><clipPath id="D"><path d="M1.203 49H85.41v66.504H1.203zm0 0" class="B"/></clipPath><clipPath id="E"><path d="M281.289 5.531h92.406v109.973h-92.406zm0 0" class="B"/></clipPath></defs><g clip-path="url(#A)" class="C"><path d="M218.313 5.531l-63.445 109.895h61.449l16.68-28.891-9.379-14.203-3.805 6.594-12.285 21.277H181.23l37.191-64.418 37.691 64.207h-18.105l-7.609 15.219h52.305zm0 0"/></g><g clip-path="url(#B)" class="C"><path d="M150.734 78.816a3.25 3.25 0 0 1 3.645-3.645c1.445.184 2.613 1.348 2.797 2.797.27 2.121-1.523 3.914-3.645 3.645-1.445-.187-2.613-1.352-2.797-2.797zM116.684 4.168c2.121-.27 3.914 1.523 3.645 3.645a3.26 3.26 0 0 1-2.797 2.797c-2.121.27-3.914-1.523-3.645-3.645a3.26 3.26 0 0 1 2.797-2.797zm73.223 1.156h-35.16c-.52 0-1.02.199-1.402.551l-38.027 35.258a1.04 1.04 0 0 1-.703.273H86.047c-.566 0-1.031-.461-1.031-1.031V10.484c0-.57.465-1.031 1.031-1.031h23.246a1.03 1.03 0 0 1 .957.641 7.38 7.38 0 0 0 7.285 4.656c3.672-.207 6.672-3.164 6.93-6.832a7.39 7.39 0 0 0-7.355-7.906c-3.113 0-5.777 1.938-6.859 4.668a1.03 1.03 0 0 1-.957.645H81.922a1.03 1.03 0 0 0-1.031 1.031v38.148a1.03 1.03 0 0 0 1.031 1.031h33.906c.52 0 1.02-.199 1.402-.551l38.031-35.258a1.02 1.02 0 0 1 .699-.273h29.82c.566 0 1.031.461 1.031 1.031v29.891c0 .57-.465 1.031-1.031 1.031h-32.242c-.27 0-.527.105-.719.293l-36.383 35.207a2.07 2.07 0 0 0-.629 1.484v35.953a1.03 1.03 0 0 0 1.031 1.031h38.148a1.03 1.03 0 0 0 1.031-1.031V86.203c0-.418.254-.801.645-.953 2.852-1.133 4.84-3.992 4.656-7.285a7.41 7.41 0 0 0-6.836-6.93c-4.305-.305-7.906 3.113-7.906 7.355 0 3.113 1.938 5.777 4.668 6.859.391.152.645.535.645.953v24.012a1.03 1.03 0 0 1-1.031 1.031h-29.891a1.03 1.03 0 0 1-1.031-1.031V79.703c0-.281.113-.547.313-.742l34.242-33.137a1.04 1.04 0 0 1 .715-.289h34.699c.57 0 1.035-.461 1.035-1.031V6.355c0-.57-.465-1.031-1.035-1.031"/></g><g clip-path="url(#C)" class="C"><path d="M54.305 26.871H84.27V5.434H1.219v21.438zm0 0"/></g><g clip-path="url(#D)" class="C"><path d="M25.254 93.805V70.684h51.871V49.234H1.219v66.16h83.813v-21.59zm0 0"/></g><g clip-path="url(#E)" class="C"><path d="M345.582 5.57v50.961L314.938 5.543h-33.645l65.965 109.961h26.527V5.57zm-64.289 109.934h28.203V65.703l-28.203.012zm0 0"/></g></svg>
